app/static/assets/svg/arrow_chart.svg

<path d="M24.39 54.3a2.822 2.822 0 0 0 4.09 0l9.65-10.16 15.77 16.6a2.81 2.81 0 0 0 4.08 0l20.59-21.68 5.39 5.86c2.78 2.93 7.6.78 7.6-3.32V21.88c0-1.76-1.3-3.13-2.97-3.13H69.85c-3.89 0-5.93 5.08-3.15 8.01l5.57 5.66-16.33 17.19-15.77-16.6a2.822 2.822 0 0 0-4.09 0L22.17 47.66c-1.12 1.17-1.12 3.12 0 4.29l2.22 2.35zm70.14 23.83H11.41v-62.5c0-1.76-1.3-3.13-2.97-3.13H5.47c-1.67 0-2.97 1.37-2.97 3.13v65.62c0 3.52 2.6 6.25 5.94 6.25h86.09c1.67 0 2.97-1.37 2.97-3.12v-3.13c0-1.76-1.3-3.12-2.97-3.12z"/>

<path d=" M 24.39 54.3 C 25.51 55.47 27.36 55.47 28.48 54.3 L 38.13 44.14 L 53.9 60.74 C 55.01 61.91 56.87 61.91 57.98 60.74 L 78.57 39.06 L 83.96 44.92 C 86.74 47.85 91.56 45.7 91.56 41.6 L 91.56 21.88 C 91.56 20.12 90.26 18.75 88.59 18.75 L 69.85 18.75 C 65.96 18.75 63.92 23.83 66.7 26.76 L 72.27 32.42 L 55.94 49.61 L 40.17 33.01 C 39.05 31.84 37.2 31.84 36.08 33.01 L 22.17 47.66 C 21.05 48.83 21.05 50.78 22.17 51.95 L 24.39 54.3 Z  M 94.53 78.13 L 11.41 78.13 L 11.41 15.63 C 11.41 13.87 10.11 12.5 8.44 12.5 L 5.47 12.5 C 3.8 12.5 2.5 13.87 2.5 15.63 L 2.5 81.25 C 2.5 84.77 5.1 87.5 8.44 87.5 L 94.53 87.5 C 96.2 87.5 97.5 86.13 97.5 84.38 L 97.5 81.25 C 97.5 79.49 96.2 78.13 94.53 78.13 Z "/>
